X: 11926
T: Empty Bathtub, The
R: jig
M: 6/8
K: Dmajor
~d3 dBA|FAE EFD|FAB ~d3|fBB BAB|
def ~a3|fgf ede|dBA FAB|1 ~d3 d2A:|2 ~d3 d2f||
gff bff|gfe def|gff aff|efe dBA|
gff dff|gfe def|fge dBA|FAB ~d3:|

